cursors/src/svg-dark/progress-23.svg

<svg xmlns="http://www.w3.org/2000/svg" width="32" height="32" viewBox="0 0 32 32"><defs><linearGradient id="b" x1="545.808" x2="545.808" y1="7.544" y2="903.099" gradientUnits="userSpaceOnUse"><stop stop-color="#ffd305" style="stop-color:#ffd305;stop-color:color(display-p3 1 .8275 .0196);stop-opacity:1"/><stop offset="1" stop-color="#fdcf01" style="stop-color:#fdcf01;stop-color:color(display-p3 .9922 .8118 .0039);stop-opacity:1"/></linearGradient><linearGradient id="c" x1="506.5" x2="506.5" y1="13.499" y2="1146.96" gradientUnits="userSpaceOnUse"><stop stop-color="#52cf30" style="stop-color:#52cf30;stop-color:color(display-p3 .3216 .8118 .1882);stop-opacity:1"/><stop offset="1" stop-color="#3bbd1c" style="stop-color:#3bbd1c;stop-color:color(display-p3 .2314 .7412 .1098);stop-opacity:1"/></linearGradient><linearGradient id="d" x1="533.223" x2="533.223" y1="16.5" y2="1016.5" gradientUnits="userSpaceOnUse"><stop stop-color="#14adf6" style="stop-color:#14adf6;stop-color:color(display-p3 .0784 .6784 .9647);stop-opacity:1"/><stop offset="1" stop-color="#1191f4" style="stop-color:#1191f4;stop-color:color(display-p3 .0667 .5686 .9569);stop-opacity:1"/></linearGradient><linearGradient id="e" x1="554.984" x2="554.984" y1="16.5" y2="912.055" gradientUnits="userSpaceOnUse"><stop stop-color="#ca70e1" style="stop-color:#ca70e1;stop-color:color(display-p3 .7922 .4392 .8824);stop-opacity:1"/><stop offset="1" stop-color="#b452cb" style="stop-color:#b452cb;stop-color:color(display-p3 .7059 .3216 .7961);stop-opacity:1"/></linearGradient><linearGradient id="f" x1="516.5" x2="516.5" y1="8.166" y2="1141.62" gradientUnits="userSpaceOnUse"><stop stop-color="#ff645d" style="stop-color:#ff645d;stop-color:color(display-p3 1 .3922 .3647);stop-opacity:1"/><stop offset="1" stop-color="#ff4332" style="stop-color:#ff4332;stop-color:color(display-p3 1 .2627 .1961);stop-opacity:1"/></linearGradient><linearGradient id="g" x1="534.769" x2="534.769" y1="6.5" y2="1006.5" gradientUnits="userSpaceOnUse"><stop stop-color="#fbb114" style="stop-color:#fbb114;stop-color:color(display-p3 .9843 .6941 .0784);stop-opacity:1"/><stop offset="1" stop-color="#ff9508" style="stop-color:#ff9508;stop-color:color(display-p3 1 .5843 .0314);stop-opacity:1"/></linearGradient><filter id="a" width="1.294" height="1.294" x="-.147" y="-.147" style="color-interpolation-filters:sRGB"><feGaussianBlur stdDeviation=".674"/></filter></defs><circle cx="13.5" cy="24.5" r="5.5" style="opacity:.3;fill:#fff;stroke-width:2;stroke-linecap:round;stroke-linejoin:round;filter:url(#a)"/><path fill="url(#b)" d="M12.046 7.544A6 6 0 0 1 16.5 16.5a6 6 0 0 0-9.98-.623 10 10 0 0 1 5.526-8.333" style="fill:url(#b)" transform="rotate(-15 66.072 -.518)scale(.55)"/><path fill="url(#c)" d="M6.52 15.877a6 6 0 0 1 9.98.623 6 6 0 0 0-5.53 8.334 9.99 9.99 0 0 1-4.45-8.957" style="fill:url(#c)" transform="rotate(-15 66.072 -.518)scale(.55)"/><path fill="url(#d)" d="M10.97 24.834A6 6 0 0 1 16.5 16.5a6 6 0 0 0 4.455 8.955A9.96 9.96 0 0 1 16.5 26.5a9.95 9.95 0 0 1-5.53-1.666" style="fill:url(#d)" transform="rotate(-15 66.072 -.518)scale(.55)"/><path fill="url(#e)" d="M20.955 25.456A6 6 0 0 1 16.5 16.5a6 6 0 0 0 9.98.622 10 10 0 0 1-5.527 8.333" style="fill:url(#e)" transform="rotate(-15 66.072 -.518)scale(.55)"/><path fill="url(#f)" d="M26.48 17.123a6 6 0 0 1-9.98-.623 6 6 0 0 0 5.53-8.334 9.99 9.99 0 0 1 4.45 8.957" style="fill:url(#f)" transform="rotate(-15 66.072 -.518)scale(.55)"/><path fill="url(#g)" d="M22.03 8.166A6 6 0 0 1 16.5 16.5a6 6 0 0 0-4.454-8.956A9.96 9.96 0 0 1 16.5 6.5c2.044 0 3.946.613 5.53 1.666" style="fill:url(#g)" transform="rotate(-15 66.072 -.518)scale(.55)"/><path fill-rule="evenodd" d="m5.502 3.742 8.383 8.4c1.053 1.057.306 2.859-1.185 2.859l-3.447-.002-2.468 2.185C5.704 18.14 4 17.375 4 15.93V4.364c0-.784.947-1.176 1.5-.621" clip-rule="evenodd" style="fill:#000;fill-opacity:1"/><path fill-rule="evenodd" d="M5 5.01v10.898c0 .59.697.904 1.139.513L8.874 14h3.8c.61 0 .916-.736.485-1.168L5.251 4.907A.147.147 0 0 0 5 5.01" clip-rule="evenodd" style="fill:#fff;fill-opacity:1"/></svg>

<?xml version="1.0" encoding="UTF-8" standalone="no"?>
<svg
   width="32"
   height="32"
   viewBox="0 0 32 32"
   version="1.1"
   id="svg19"
   sodipodi:docname="progress-23.svg"
   inkscape:version="1.4.2 (ebf0e940d0, 2025-05-08)"
   xmlns:inkscape="http://www.inkscape.org/namespaces/inkscape"
   xmlns:sodipodi="http://sodipodi.sourceforge.net/DTD/sodipodi-0.dtd"
   xmlns="http://www.w3.org/2000/svg"
   xmlns:svg="http://www.w3.org/2000/svg">
  <sodipodi:namedview
     id="namedview19"
     pagecolor="#000fff"
     bordercolor="#ffffff000"
     borderopacity="0.25"
     inkscape:showpageshadow="2"
     inkscape:pageopacity="0.0"
     inkscape:pagecheckerboard="0"
     inkscape:deskcolor="#d1d1d1"
     inkscape:zoom="11"
     inkscape:cx="-20.181818"
     inkscape:cy="36.772727"
     inkscape:window-width="1920"
     inkscape:window-height="1006"
     inkscape:window-x="0"
     inkscape:window-y="0"
     inkscape:window-maximized="1"
     inkscape:current-layer="svg19" />
  <defs
     id="defs12">
    <filter
       id="a"
       width="1.2941091"
       height="1.2941091"
       x="-0.14705455"
       y="-0.14705455"
       style="color-interpolation-filters:sRGB">
      <feGaussianBlur
         stdDeviation=".674"
         id="feGaussianBlur12" />
    </filter>
  </defs>
  <circle
     cx="13.5"
     cy="24.5"
     r="5.5"
     style="opacity:.3;fill:#000000;stroke-linecap:round;stroke-linejoin:round;filter:url(#a)"
     id="circle12" />
  <path
     fill="#000"
     fill-rule="evenodd"
     d="m5.502 3.742 8.383 8.4c1.053 1.057.306 2.859-1.185 2.859l-3.447-.002-2.468 2.185C5.704 18.14 4 17.375 4 15.93V4.364c0-.784.947-1.176 1.5-.621"
     clip-rule="evenodd"
     style="fill:#000;fill-opacity:1"
     id="path18" />
  <path
     fill-rule="evenodd"
     d="M5 5.01v10.898c0 .59.697.904 1.139.513L8.874 14h3.8c.61 0 .916-.736.485-1.168L5.251 4.907A.147.147 0 0 0 5 5.01"
     clip-rule="evenodd"
     style="fill:#ffffff;fill-opacity:1"
     id="path19" />
  <g
     id="g19"
     transform="rotate(-15,13.5,23.500002)">
    <path
       d="M 12.046,7.544 A 6,6 0 0 1 16.5,16.5 6,6 0 0 0 6.52,15.877 10,10 0 0 1 12.046,7.544"
       style="fill:#ffd305;fill-opacity:1"
       transform="matrix(0.55,0,0,0.55,4.425,14.425)"
       id="path12" />
    <path
       d="M 6.52,15.877 A 6,6 0 0 1 16.5,16.5 6,6 0 0 0 10.97,24.834 9.99,9.99 0 0 1 6.52,15.877"
       style="fill:#52cf30;fill-opacity:1"
       transform="matrix(0.55,0,0,0.55,4.425,14.425)"
       id="path13" />
    <path
       d="M 10.97,24.834 A 6,6 0 0 1 16.5,16.5 6,6 0 0 0 20.955,25.455 9.96,9.96 0 0 1 16.5,26.5 9.95,9.95 0 0 1 10.97,24.834"
       style="fill:#14adf6;fill-opacity:1"
       transform="matrix(0.55,0,0,0.55,4.425,14.425)"
       id="path14" />
    <path
       d="M 20.955,25.456 A 6,6 0 0 1 16.5,16.5 a 6,6 0 0 0 9.98,0.622 10,10 0 0 1 -5.527,8.333"
       style="fill:#ca70e1;fill-opacity:1"
       transform="matrix(0.55,0,0,0.55,4.425,14.425)"
       id="path15" />
    <path
       d="M 26.48,17.123 A 6,6 0 0 1 16.5,16.5 a 6,6 0 0 0 5.53,-8.334 9.99,9.99 0 0 1 4.45,8.957"
       style="fill:#ff645d;fill-opacity:1"
       transform="matrix(0.55,0,0,0.55,4.425,14.425)"
       id="path16" />
    <path
       d="M 22.03,8.166 A 6,6 0 0 1 16.5,16.5 6,6 0 0 0 12.046,7.544 9.96,9.96 0 0 1 16.5,6.5 c 2.044,0 3.946,0.613 5.53,1.666"
       style="fill:#fbb114;fill-opacity:1"
       transform="matrix(0.55,0,0,0.55,4.425,14.425)"
       id="path17" />
  </g>
</svg>
